X:19010
T:Shenandoah
R:Shanty
C:Trad.
O:England
M:4/4
L:1/8
Q:1/8=160
K:G
D2| "G"GG G3 "Am"ABc | "C"e3"G"d3 (gf) | "C"e3d "G"ed "D"Bd-|"G"d6 z"D"d |
"Em"eee3B "Bm"dB | "D"A2 "Em"G3z "D7"GA |"G"B3G "D"Be "Bm"d2- |d2"G"GA "C"B3G  |"D7"A2 "G"G4 |]

